static/images/mobile/copyright/wikipedia-tagline-bug.svg

<?xml version="1.0" encoding="UTF-8"?>
<svg width="120px" height="14px" viewBox="0 0 120 14" version="1.1" xmlns="http://www.w3.org/2000/svg" xmlns:xlink="http://www.w3.org/1999/xlink">
    <title>bug-tagline</title>
    <g id="Page-1" stroke="none" stroke-width="1" fill="none" fill-rule="evenodd">
        <path d="M6.78505584,2.16115627 C7.14022284,1.73899333 7.59926071,1.38047392 8.16217735,1.08559804 C8.91941342,0.730451626 9.6163457,0.613172706 10.2529789,0.733792951 C10.8962917,0.847651368 11.8043149,1.55469788 12.9770534,2.85474247 L15.4096219,6.00100366 L15.3493038,6.76494772 L11.7306078,3.14624536 C11.3285182,2.94521161 10.8795312,2.8413455 10.3836485,2.83464702 C9.9547554,2.89498089 9.27457409,3.15295968 8.34310614,3.60863088 L6.78505584,2.16115627 M11.8512312,7.72992551 C11.4424399,8.8088409 10.9834021,9.48567297 10.4741161,9.76042173 C9.97150795,10.028472 9.50576843,10.162505 9.07689592,10.162505 C8.64130276,10.162505 8.24927825,10.0619486 7.90082082,9.86094652 C7.55904604,9.65319845 7.10670983,9.00653332 6.54380902,7.92091944 C6.04790731,6.9961484 5.45484273,6.47680199 4.76461686,6.3628644 C4.07437831,6.24900598 3.44445781,6.47672282 2.87485376,7.04639496 L1.44747778,8.97636638 L0,7.42836698 C0.636620572,6.4566907 1.20622937,5.68604816 1.70882798,5.11642353 C2.47277203,4.48651253 3.2300176,4.1983668 3.98056626,4.25195469 C4.7378055,4.29882825 5.51850527,4.72441169 6.32266715,5.52856249 C7.3278517,7.1368641 8.13200566,7.94103074 8.73513064,7.9410149 C9.3248349,7.887332 9.84753371,7.29770693 10.3032318,6.1718863 L11.8512312,7.72992551 M20.626575,3.13618971 L27.5925659,10.102187 L26.8286187,10.8661311 L21.3201596,5.34762421 L18.5558767,8.11189754 L17.108399,6.65436728 L20.626575,3.13618971 M31.4022495,4.16150138 C33.2652029,2.49958022 35.2454319,2.71402677 37.3429431,4.80482519 L39.7755115,7.85056159 L39.7151935,8.70497479 L37.3027284,6.29250655 C36.4985649,5.48835575 35.694411,5.08627243 34.8902649,5.08627243 C34.086103,5.08627243 33.2819491,5.48835575 32.4777999,6.29250655 L30.2563224,8.80548374 L28.7083246,6.85541686 L31.4022432,4.16150138 M44.2687257,4.42283733 C46.131679,2.55989826 48.1119081,2.67382002 50.2094193,4.76461844 L53.3456232,7.9108638 L52.581676,8.67480785 L50.1692109,6.2522998 C49.3650475,5.448149 48.5608935,5.04606568 47.7567474,5.04606568 C46.9525855,5.04606568 46.1484316,5.448149 45.3442824,6.2522998 L42.9217664,8.67480785 L41.4742886,7.2172776 L44.2687257,4.42283733 M45.9675028,8.77533264 C47.0061972,7.79024355 48.3565057,8.08174644 50.0184317,9.64985713 L52.5012593,12.0020073 L51.8177288,12.6553868 L49.9782249,10.9063378 C49.3616982,10.3300305 48.7954387,9.99162241 48.2794478,9.89109762 C47.7701428,9.79054116 47.3144558,9.93464569 46.9123851,10.323332 L45.6860476,11.4793038 L44.3994,10.263014 L45.9675028,8.77533264 M70.0217814,3.17641229 L71.4793117,4.6238869 L65.8904375,10.2127516 L59.6079771,3.94035635 L60.3719243,3.17641229 L65.1968529,8.00133294 L70.0217814,3.17641229 M75.2688919,4.42283733 C77.1318452,2.55989826 79.1120743,2.67382002 81.2095855,4.76461844 L84.3457879,7.9108638 L83.5818422,8.67480785 L81.1693771,6.2522998 C80.3652137,5.448149 79.5610597,5.04606568 78.7569137,5.04606568 C77.9527518,5.04606568 77.1485978,5.448149 76.3444486,6.2522998 L73.9219326,8.67480785 L72.4744532,7.2172776 L75.2688919,4.42283733 M76.967669,8.77533264 C78.0063618,7.79024355 79.3566704,8.08174644 81.0185979,9.64985713 L83.5014256,12.0020073 L82.817895,12.6553868 L80.9783911,10.9063378 C80.3618628,10.3300305 79.7956049,9.99162241 79.279614,9.89109762 C78.770309,9.79054116 78.314622,9.93464569 77.9125498,10.323332 L76.6862139,11.4793038 L75.3995662,10.263014 L76.967669,8.77533264 M89.0199387,3.05577621 L90.477469,4.50326666 L87.7131862,7.26753999 L93.2316993,12.776007 L92.4677521,13.5399511 L85.5017612,6.57395379 L89.0199387,3.05577621 M104.640644,3.37744604 L106.098176,4.82492065 L100.5093,10.4138012 L94.2268409,4.14139009 L94.9907865,3.37744604 L99.8157151,8.20236668 L104.640644,3.37744604 M99.8157151,-3.55271368e-15 L101.263194,1.45753026 L99.8157151,2.90500487 L98.3682373,1.45753026 L99.8157151,-3.55271368e-15 M112.682198,3.17641229 L114.129672,4.6238869 L108.540795,10.2127516 L107.093317,8.76527699 L112.682198,3.17641229 M118.552525,3.1669109 L120,4.61438551 L114.411119,10.203266 L112.963645,8.7557756 L118.552525,3.1669109" id="bug-tagline" fill="#000000" fill-rule="nonzero"></path>
    </g>
</svg>

<svg xmlns="http://www.w3.org/2000/svg" width="120" height="14"><path fill="#000" fill-rule="nonzero" d="M6.785 2.161c.355-.422.814-.78 1.377-1.075C8.92.73 9.616.613 10.253.734c.643.114 1.551.82 2.724 2.12l2.433 3.147-.06.764-3.62-3.619a3.065 3.065 0 0 0-1.346-.311c-.43.06-1.11.318-2.04.774L6.784 2.16m5.066 5.569c-.409 1.079-.868 1.756-1.377 2.03-.502.268-.968.403-1.397.403-.436 0-.828-.101-1.176-.302-.342-.208-.794-.854-1.357-1.94-.496-.925-1.09-1.444-1.78-1.558-.69-.114-1.32.114-1.89.683l-1.427 1.93L0 7.428c.637-.971 1.206-1.742 1.709-2.312.764-.63 1.521-.918 2.272-.864.757.047 1.538.472 2.342 1.277C7.328 7.137 8.132 7.94 8.735 7.94c.59-.054 1.113-.643 1.568-1.77l1.548 1.559m8.776-4.594 6.966 6.966-.764.764-5.509-5.518-2.764 2.764-1.448-1.458 3.519-3.518m10.775 1.026c1.863-1.662 3.843-1.448 5.94.643l2.434 3.046-.06.854-2.413-2.412c-.804-.805-1.609-1.207-2.413-1.207-.804 0-1.608.402-2.412 1.207l-2.222 2.512-1.548-1.95 2.694-2.693m12.867.26c1.863-1.862 3.843-1.748 5.94.343l3.137 3.146-.764.764-2.413-2.423c-.804-.804-1.608-1.206-2.412-1.206-.804 0-1.609.402-2.413 1.206l-2.422 2.423-1.448-1.458 2.795-2.794m1.699 4.352c1.038-.985 2.389-.693 4.05.875l2.483 2.352-.683.653-1.84-1.749c-.616-.576-1.183-.914-1.699-1.015-.509-.1-.965.044-1.367.432l-1.226 1.156-1.287-1.216 1.569-1.488m24.054-5.599 1.457 1.448-5.589 5.589-6.282-6.273.764-.764 4.825 4.825 4.825-4.825m5.247 1.247c1.863-1.863 3.843-1.75 5.94.342l3.137 3.146-.764.764-2.413-2.423c-.804-.804-1.608-1.206-2.412-1.206-.804 0-1.608.402-2.413 1.206l-2.422 2.423-1.448-1.458 2.795-2.794m1.699 4.352c1.038-.985 2.389-.693 4.05.875l2.483 2.352-.683.653-1.84-1.749c-.616-.576-1.182-.914-1.698-1.015-.51-.1-.965.044-1.367.432l-1.227 1.156-1.286-1.216 1.568-1.488m12.052-5.72 1.457 1.448-2.764 2.765 5.519 5.508-.764.764-6.966-6.966 3.518-3.518m15.62.321 1.458 1.448-5.589 5.589-6.282-6.273.764-.764 4.825 4.825 4.825-4.825M99.816 0l1.447 1.458-1.447 1.447-1.448-1.447L99.816 0m12.866 3.176 1.448 1.448-5.59 5.589-1.447-1.448 5.59-5.589m5.87-.01L120 4.615l-5.589 5.59-1.447-1.448 5.589-5.59"/></svg>
